symbols/web/voice_chat/materialsymbolsoutlined/voice_chat_wght300grad200_40px.svg

<svg xmlns="http://www.w3.org/2000/svg" height="40" width="40"><path d="M3.292 36.25V6.292q0-1.375.979-2.354.979-.98 2.354-.98h26.75q1.375 0 2.354.98.979.979.979 2.354v20q0 1.333-.979 2.333-.979 1-2.354 1H9.917Zm2.791-6.833 2.625-2.625h24.667q.25 0 .396-.146.146-.146.146-.354v-20q0-.25-.146-.396-.146-.146-.396-.146H6.625q-.25 0-.396.146-.146.146-.146.396Zm0-23.125V5.75v23.667Zm12.834 17.791h2.166V8.458h-2.166Zm-4.834-3.333h2.125v-8.958h-2.125Zm-4.75-3.333H11.5v-2.292H9.333Zm14.459 3.333h2.125v-8.958h-2.125Zm4.708-3.333h2.167v-2.292H28.5Z"/></svg>

<svg xmlns="http://www.w3.org/2000/svg" height="40" width="40"><path d="M13.167 22.75H23.333Q24 22.75 24.438 22.292Q24.875 21.833 24.875 21.167V17.5L28.417 21.042V11.375L24.875 14.875V11.208Q24.875 10.542 24.438 10.104Q24 9.667 23.375 9.667H13.167Q12.542 9.667 12.083 10.104Q11.625 10.542 11.625 11.208V21.167Q11.625 21.833 12.083 22.292Q12.542 22.75 13.167 22.75ZM3.292 36.25V6.292Q3.292 4.917 4.271 3.938Q5.25 2.958 6.625 2.958H33.375Q34.75 2.958 35.729 3.938Q36.708 4.917 36.708 6.292V26.292Q36.708 27.625 35.729 28.625Q34.75 29.625 33.375 29.625H9.917ZM6.083 29.417 8.708 26.792H33.375Q33.625 26.792 33.771 26.646Q33.917 26.5 33.917 26.292V6.292Q33.917 6.042 33.771 5.896Q33.625 5.75 33.375 5.75H6.625Q6.375 5.75 6.229 5.896Q6.083 6.042 6.083 6.292ZM6.083 6.292Q6.083 6.042 6.083 5.896Q6.083 5.75 6.083 5.75Q6.083 5.75 6.083 5.896Q6.083 6.042 6.083 6.292V26.292Q6.083 26.5 6.083 26.646Q6.083 26.792 6.083 26.792V29.417Z"/></svg>
